packages/calcite-ui-icons/icons/arrow-curve-tool-24.svg

<?xml version="1.0" encoding="UTF-8"?><svg id="icons" xmlns="http://www.w3.org/2000/svg" viewBox="0 0 24 24"><defs><style>.cls-1{fill:none;}</style></defs><path d="M17.79053.01074l-.70703.70703,2.35107,2.35107c-4.53802.22388-8.43616,2.13403-11.39838,4.93115h-2.03619v2.25226c-2.2348,2.88171-3.63489,6.32074-3.98053,9.74774h-1.01947v3h3v-3h-.96661c.33246-3.47168,1.64178-6.5246,3.57428-9h2.39233v-2.48126c2.96497-2.59119,6.65857-4.16467,10.30481-4.41754l-2.21155,2.09314.6875.72656,3.55469-3.36523L17.79053.01074ZM3,21v1h-1v-1h1ZM8,10h-1v-1h1v1Z"/><rect class="cls-1" width="24" height="24"/></svg>

<svg xmlns="http://www.w3.org/2000/svg" viewBox="0 0 24 24"><path d="M17.79.01l-.706.708 2.35 2.35C14.898 3.294 10.999 5.204 8.037 8H6v2.252C3.765 13.134 2.365 16.573 2.02 20H1v3h3v-3h-.967a17.19 17.19 0 0 1 3.575-9H9V8.519c2.965-2.591 6.659-4.165 10.305-4.418l-2.212 2.093.688.727 3.554-3.365L17.791.01zM3 21v1H2v-1h1zm5-11H7V9h1v1z"/><path fill="none" d="M0 0h24v24H0z"/></svg>
